assets/icons/qvision/meeting_room.svg

<svg xmlns="http://www.w3.org/2000/svg" height="24" viewBox="0 0 24 24" width="24"><path d="M14 6v15H3v-2h2V3h9v1h5v15h2v2h-4V6h-3zm-4 5v2h2v-2h-2z"/></svg>

<svg width="24" height="24" viewBox="0 0 24 24" fill="none" xmlns="http://www.w3.org/2000/svg">
<path d="M14 6V21H3V19H5V3H14V4H19V19H21V21H17V6H14ZM10 11V13H12V11H10Z" fill="#323232"/>
</svg>
